X:1
T:Tycoon Jig, The
N:"Arranged by Dan Emmett"
M:C
L:1/8
R:Schottische
B:James Buckley -- Buckley's New Banjo Method (1860, p. 36)
Z:AK/Fiddler's Companion
K:Amin
A,2B,2 C<A, zB,|C2D2 E4|A2c2 (3FGF E2|A2c2 (3FGF E2|
A,2B,2 C<A, zB,|C2D2E4|A>Bcd e2a2|^g>ab>g a2z2|
(3cdc G2 (3cdc G2|(3cdc G2 c>cB>c|(3ded G2 (3ded G2|(3ded G2 d>dc>d|
e2e2(3FGF E2|e2e2 (3FGF E2|(3FGF E2 (3FGF E2|E>FE>F E>DC>B,|
A,<A, z>B, C>A,B,>C|D<D z>E f>DE>F|E>^GB>c d>BG>B|A>cB>^G AECB,|
A,<A, z>B, C>A,B,>C|D<D z>E F>DE>F|E>^GB>c d>BG>B|A<A E>C A,2 z2||

